format/label/pix/icon.svg

<?xml version="1.0" encoding="UTF-8" standalone="no"?>
<!-- Generator: IcoMoon.io -->

<svg
   xmlns:dc="http://purl.org/dc/elements/1.1/"
   xmlns:cc="http://creativecommons.org/ns#"
   xmlns:rdf="http://www.w3.org/1999/02/22-rdf-syntax-ns#"
   xmlns:svg="http://www.w3.org/2000/svg"
   xmlns="http://www.w3.org/2000/svg"
   xmlns:sodipodi="http://sodipodi.sourceforge.net/DTD/sodipodi-0.dtd"
   xmlns:inkscape="http://www.inkscape.org/namespaces/inkscape"
   version="1.1"
   id="Layer_1"
   x="0px"
   y="0px"
   width="16"
   height="16"
   viewBox="0 0 16 16"
   enable-background="new 0 0 16 16"
   xml:space="preserve"
   inkscape:version="0.48.2 r9819"
   sodipodi:docname="icon.svg"
   style="fill:#000000" preserveAspectRatio="xMinYMid meet"><metadata
   id="metadata9"><rdf:RDF><cc:Work
       rdf:about=""><dc:format>image/svg+xml</dc:format><dc:type
         rdf:resource="http://purl.org/dc/dcmitype/StillImage" /></cc:Work></rdf:RDF></metadata><defs
   id="defs7" /><sodipodi:namedview
   pagecolor="#ffffff"
   bordercolor="#666666"
   borderopacity="1"
   objecttolerance="10"
   gridtolerance="10"
   guidetolerance="10"
   inkscape:pageopacity="0"
   inkscape:pageshadow="2"
   inkscape:window-width="1325"
   inkscape:window-height="847"
   id="namedview5"
   showgrid="false"
   inkscape:zoom="41.985746"
   inkscape:cx="7.336356"
   inkscape:cy="7.8898305"
   inkscape:window-x="471"
   inkscape:window-y="0"
   inkscape:window-maximized="0"
   inkscape:current-layer="Layer_1" /> <path
   d="m 12.827683,15.838983 -9.6610163,0 c -1.6008305,0 -2.89830512,-1.298441 -2.89830512,-2.898305 l 0,-9.6610169 c 0,-1.6008305 1.29747462,-2.89830517 2.89830512,-2.89830517 l 9.6610163,0 c 1.599864,0 2.898305,1.29747467 2.898305,2.89830517 l 0,9.6610169 c 0,1.599864 -1.298441,2.898305 -2.898305,2.898305 z"
   id="path2992" /><path
   id="path3762"
   d="m 12.090825,14.755283 -8.187301,0 c -1.356636,0 -2.4561907,-1.11638 -2.4561907,-2.491918 l 0,-8.306391 c 0,-1.3763689 1.0995547,-2.4919172 2.4561907,-2.4919172 l 8.187301,0 c 1.355818,0 2.456191,1.1155483 2.456191,2.4919172 l 0,8.306391 c 0,1.375538 -1.100373,2.491918 -2.456191,2.491918 z"
   inkscape:connector-curvature="0"
   style="fill:#ffffff;fill-opacity:1" /><path
   d="m 5.0988701,5.2118645 -0.9661017,0 0,-0.9661017 0.9661017,0 5.7966099,0 0.966101,0 0,0.9661017 -0.966101,0 z"
   id="path2988"
   style="fill:#1b1b1b;fill-opacity:1" /><path
   d="m 9.9293784,6.1779662 0,0.9661016 -3.8644066,0 0,-0.9661016 z"
   id="path2986"
   style="fill:#1b1b1b;fill-opacity:1" /><path
   d="m 9.9615784,9.0762712 -5.79661,0 0,-0.9661017 5.79661,0 z"
   id="path2984"
   style="fill:#1b1b1b;fill-opacity:1" /><path
   d="m 11.861578,11.008475 -5.9576266,0 0,-0.966102 5.9576266,0 z"
   id="path3"
   style="fill:#1b1b1b;fill-opacity:1" /></svg>

<?xml version="1.0" encoding="UTF-8" standalone="no"?>
<!-- Created with Inkscape (http://www.inkscape.org/) -->

<svg
   width="24"
   height="24"
   viewBox="0 0 24 24.000001"
   version="1.1"
   id="svg5"
   xml:space="preserve"
   inkscape:version="1.2.1 (9c6d41e, 2022-07-14)"
   sodipodi:docname="icon 5.svg"
   inkscape:export-filename="icon 5.png"
   inkscape:export-xdpi="96"
   inkscape:export-ydpi="96"
   xmlns:inkscape="http://www.inkscape.org/namespaces/inkscape"
   xmlns:sodipodi="http://sodipodi.sourceforge.net/DTD/sodipodi-0.dtd"
   xmlns="http://www.w3.org/2000/svg"
   xmlns:svg="http://www.w3.org/2000/svg"><sodipodi:namedview
     id="namedview7"
     pagecolor="#ffffff"
     bordercolor="#999999"
     borderopacity="1"
     inkscape:showpageshadow="0"
     inkscape:pageopacity="0"
     inkscape:pagecheckerboard="0"
     inkscape:deskcolor="#d1d1d1"
     inkscape:document-units="px"
     showgrid="true"
     inkscape:zoom="13.455443"
     inkscape:cx="-5.9455493"
     inkscape:cy="15.867185"
     inkscape:window-width="1439"
     inkscape:window-height="837"
     inkscape:window-x="0"
     inkscape:window-y="38"
     inkscape:window-maximized="0"
     inkscape:current-layer="layer1"><inkscape:grid
       type="xygrid"
       id="grid27"
       originx="0"
       originy="0" /></sodipodi:namedview><defs
     id="defs2" /><g
     inkscape:label="Livello 1"
     inkscape:groupmode="layer"
     id="layer1"><g
       style="fill:#000000"
       id="g25"
       transform="matrix(1.5526321,0,0,1.5526321,-0.4166633,-0.59210192)"><path
         d="M 12.434869,15.210481 H 3.5594802 c -1.4706518,0 -2.66261655,-1.192853 -2.66261655,-2.662617 V 3.6724747 c 0,-1.4706517 1.19196475,-2.6626167 2.66261655,-2.6626167 h 8.8753888 c 1.469764,0 2.662617,1.191965 2.662617,2.6626167 v 8.8753893 c 0,1.469764 -1.192853,2.662617 -2.662617,2.662617 z"
         id="path2992"
         style="fill:none;stroke:#000000;stroke-width:1.257;stroke-dasharray:none;stroke-opacity:1" /><path
         d="M 5.0988701,5.2118645 H 4.1327684 V 4.2457628 H 5.0988701 10.89548 11.861581 V 5.2118645 H 10.89548 Z"
         id="path2988"
         style="fill:#000000;fill-opacity:1" /><path
         d="M 9.9293784,6.1779662 V 7.1440678 H 6.0649718 V 6.1779662 Z"
         id="path2986"
         style="fill:#000000;fill-opacity:1" /><path
         d="m 9.9615784,9.0762712 h -5.79661 V 8.1101695 h 5.79661 z"
         id="path2984"
         style="fill:#000000;fill-opacity:1" /><path
         d="M 11.861578,11.008475 H 5.9039514 v -0.966102 h 5.9576266 z"
         id="path3"
         style="fill:#000000;fill-opacity:1" /></g></g></svg>
